X:1
T:Påskemorgen, 77.77.77
T:Påskemorgen, 77.77.77
T:Ludvig Mathias Lindeman (1812-1887)
T:Public Domain Courtesy of the Cyber Hymnal™
C:Ludvig Mathias Lindeman (1812-1887)
Z:Public Domain
Z:Courtesy of the Cyber Hymnal™
%%score ( 1 2 ) ( 3 4 )
L:1/8
Q:1/4=110
M:4/4
K:G
V:1 treble 
V:2 treble 
V:3 bass 
V:4 bass 
V:1
 [DG]2 D2 [DE]2 [CE]2 | [Cc]2 [CF]2 [CA]2 [B,G]2 | [Dd]2 [DB]2 [EB]2 ([EA][DB]) | %3
 [Cc]2 [DA]2 [DB]4 | [^CA]2 ([CE][DF]) [EG]2 [EG]2 | [Ee]2 (^cA) B2 A2 | %6
 [Dd]2 ([FA][DF]) [DE]2 ([^CE][DF]) | [DG]2 [^CA]2 [DF]4 | [DG]2 D2 [DE]2 [CE]2 | %9
 [Cc]2 [CF]2 [CA]2 [B,G]2 | [Dd]2 [DB]2 [EB]2 ([EA][DB]) | [Cc]2 [DF]2 [DG]4 |] %12
V:2
 x2 D2 x4 | x8 | x8 | x8 | x8 | x2 E2 D4 | x8 | x8 | x2 D2 x4 | x8 | x8 | x8 |] %12
V:3
 [G,,B,]2 [B,,G,]2 [C,G,]2 G,2 | [A,,A,]2 [D,A,]2 [^D,F,]2 [E,G,]2 | %2
 [B,,G,]2 [G,,G,]2 [C,G,]2 G,2 | [A,,G,]2 [D,F,]2 [G,,G,]4 | [A,,E,]2 A,2 [E,G,]2 [D,B,]2 | %5
 [^C,A,]2 G,2 [D,F,]4 | [F,A,]2 ([D,D][F,A,]) [G,B,]2 A,2 | [E,B,]2 [A,,A,]2 [D,A,]4 | %8
 [G,,B,]2 [B,,G,]2 [C,G,]2 [E,G,]2 | [A,,A,]2 [D,A,]2 [^D,F,]2 [E,G,]2 | %10
 [B,,G,]2 [G,,G,]2 [C,E,]2 ([C,E,][B,,^G,]) | [A,,A,]2 [D,A,]2 [G,,B,]4 |] %12
V:4
 x6 (C,B,,) | x8 | x6 (C,B,,) | x8 | x2 (G,F,) x4 | x2 (A,,^C,) x4 | x6 (G,F,) | x8 | x8 | x8 | %10
 x8 | x8 |] %12

